modules/feathericon/icons/folder-open.svg

<svg width="14" height="12" viewBox="0 0 14 12" xmlns="http://www.w3.org/2000/svg"><path d="M4 11h1V5h9v6c0 1.094-1 1-1 1H1s-1 0-1-1V3c0-1 1-1 1-1h1V1c0-1 1-1 1-1h3s1 0 1 1v1h5s1 0 1 1v1H4v7z" fill="#000" fill-rule="evenodd"/></svg>

<?xml version="1.0" encoding="UTF-8"?>
<svg width="14px" height="12px" viewBox="0 0 14 12" version="1.1" xmlns="http://www.w3.org/2000/svg" xmlns:xlink="http://www.w3.org/1999/xlink">
    <!-- Generator: sketchtool 48.1 (47250) - http://www.bohemiancoding.com/sketch -->
    <title>folder-open</title>
    <desc>Created with sketchtool.</desc>
    <defs></defs>
    <g id="web-app" stroke="none" stroke-width="1" fill="none" fill-rule="evenodd">
        <g id="folder-open" fill="#000000">
            <path d="M4,11 L5,11 L5,5 L14,5 L14,11 C14,12.0939016 13,12 13,12 L1,12 C1,12 0,12 0,11 L0,3 C0,2 1,2 1,2 L2,2 C2,2 2.00067687,1.01840769 2,1 C2,0 3,0 3,0 L6,0 C6,0 7,0 7,1 L7,2 L12,2 C12,2 13,2 13,3 L13,4 L4,4 L4,11 L4,11 Z" id="Shape"></path>
        </g>
    </g>
</svg>
